X: 138
T: Picking up Sticks
M:6/8
L:1/8
Q:160
S:Playford
O:Manuscript
A:English
K:F
d|d2 d ^c>=bc|d2 d A2 A|d3 ^c>=bc|d3 A g|B>dc B>cB|A>BA G>FE|FGA G>AF|EE3 D2:|

